src/shared/assets/icons/close.svg

<svg width="17" height="17" viewBox="0 0 17 17" fill="none" xmlns="http://www.w3.org/2000/svg">
<path fill-rule="evenodd" clip-rule="evenodd" d="M16.041 1.24227C15.601 0.825829 14.9125 0.82508 14.4716 1.24056L8.50002 6.86786L2.52845 1.24056C2.08755 0.825079 1.39905 0.825829 0.959062 1.24227L0.893634 1.30419C0.416576 1.75571 0.417405 2.51549 0.895443 2.96597L6.76803 8.5L0.895443 14.034C0.417405 14.4845 0.416578 15.2443 0.893636 15.6958L0.959064 15.7577C1.39906 16.1742 2.08756 16.1749 2.52845 15.7594L8.50002 10.1321L14.4716 15.7594C14.9125 16.1749 15.601 16.1742 16.041 15.7577L16.1064 15.6958C16.5835 15.2443 16.5826 14.4845 16.1046 14.034L10.232 8.5L16.1046 2.96597C16.5826 2.51549 16.5835 1.75571 16.1064 1.30419L16.041 1.24227Z" fill="#1FC6C6"/>
</svg>

<svg xmlns="http://www.w3.org/2000/svg" width="17" height="17" fill="none"><path fill="#1FC6C6" fill-rule="evenodd" d="M16.041 1.242a1.143 1.143 0 0 0-1.57-.001L8.5 6.868 2.528 1.24a1.143 1.143 0 0 0-1.569.001l-.065.062a1.143 1.143 0 0 0 .001 1.662L6.768 8.5.895 14.034a1.143 1.143 0 0 0-.001 1.662l.065.062c.44.416 1.129.417 1.57.001L8.5 10.132l5.972 5.627c.44.416 1.129.415 1.569-.001l.065-.062a1.143 1.143 0 0 0-.001-1.662L10.232 8.5l5.873-5.534c.478-.45.479-1.21.001-1.662l-.065-.062Z" clip-rule="evenodd"/></svg>
